X: 4346
T: Bois Y Cware
R: polka
M: 2/4
K: Gmajor
B>AGD EED2|DBA2 DAG2|B>AGD EED2|1 DBAB G2GA:|2 DBAB G2G2:|
BBBB Bdd2|ccA2 BBG2|B2B2 Bdd2|ccAA G2G2:|

